!!!!SEGMENT: pl-wn--sd-xvi-qu-273--127_gomolka-mikolaj--jesli-domu-sam-pan-nie-zbuduje.krn
!!!cenid: 15xx:332
!!!COM: Gomółka, Mikołaj
!!!COM-rismid: pe30013343
!!!CDT: ~1535->1591/04/30
!!!CNT: Polish
!!!GTL: Melodiae na psalterz polski
!!!OTL: CXXVII. Jesli domu sam Pan nie zbuduje,
!!!ONB: Niſi dominus aedificauerit domum
!!!PDT: 1580
!!!AGN: Sacred
!!!SMS-siglum: PL-Wn
!!!SMS-shelfmark: SD XVI.Qu.273
!!!SMS-shelfwork: 127 G
!!!NIFC-rismid:
!!!ONB-nifc: Melodiae na psalterz polski
**kern	**text	**text	**kern	**text	**text	**kern	**text	**text	**kern	**text	**text
*part4	*part4	*part4	*part3	*part3	*part3	*part2	*part2	*part2	*part1	*part1	*part1
*staff4	*staff4	*staff4	*staff3	*staff3	*staff3	*staff2	*staff2	*staff2	*staff1	*staff1	*staff1
*I"Bass	*	*	*I"Tenor	*	*	*I"Alto	*	*	*I"Soprano	*	*
*I'B.	*	*	*I'T.	*	*	*I'A.	*	*	*I'S.	*	*
*clefF4	*	*	*clefC3	*	*	*clefC3	*	*	*clefC1	*	*
*k[b-]	*	*	*k[b-]	*	*	*k[b-]	*	*	*k[b-]	*	*
*g:	*	*	*g:	*	*	*g:	*	*	*g:	*	*
*M4/2	*	*	*M4/2	*	*	*M4/2	*	*	*M4/2	*	*
*met(C|)	*	*	*met(C|)	*	*	*met(C|)	*	*	*met(C|)	*	*
*>[A,A,B]	*	*	*>[A,A,B]	*	*	*>[A,A,B]	*	*	*>[A,A,B]	*	*
*>A	*	*	*>A	*	*	*>A	*	*	*>A	*	*
=1-	=1-	=1-	=1-	=1-	=1-	=1-	=1-	=1-	=1-	=1-	=1-
1r	.	.	1r	.	.	1r	.	.	1r	.	.
2r	.	.	2r	.	.	2r	.	.	2r	.	.
2D/	JEſli	Próʒ-	2A/	JEſli	Próʒ-	2d\	JEſli	Próʒ-	2a\	JEſli	Próʒ-
=2-	=2-	=2-	=2-	=2-	=2-	=2-	=2-	=2-	=2-	=2-	=2-
1D\	domu	-no	1F#/X	do-	-no	2d\	do-	-ni	1a\	do-	-no
.	.	.	.	.	.	1d\	-mu	cʒło-	.	.	.
1E-\X	.	cʒło-	1G/	-mu	cʒło-	.	.	.	1g\	-mu	cʒło-
.	.	.	.	.	.	2c/	.	.	.	.	.
=3-	=3-	=3-	=3-	=3-	=3-	=3-	=3-	=3-	=3-	=3-	=3-
2D/	ſam	-wiek	2A/	.	.	2d\	ſam	-wiek	2f/	.	.
2D/	pan	o	4d\	ſam	-wiek	4f\	.	o	2a\	ſam	-wiek
.	.	.	4c\	.	.	4e\	pan	nim	.	.	.
2G\	.	nim	2B-/	Pan	o	2d\	nie	.	2b-\	.	.
2C/	nie	.	4c/	.	.	2e-\X	ʒbu-	ſye	4a\	pan	o
.	.	.	4B-/	.	nim	.	.	.	4g\	nie	nim
=4-	=4-	=4-	=4-	=4-	=4-	=4-	=4-	=4-	=4-	=4-	=4-
2D/	ʒbu-	ſye frá-	4A/	nie	.	2.d\	-duie,	frá-	4f/	.	ſye
.	.	.	4G/	ʒbu-	ſye	.	.	.	2g/	ʒbu-	.
2D/	-du-	-ſu-	2A/	-du-	.	.	.	.	.	.	.
.	.	.	.	.	.	4c/	.	-ſu-	4f/	duie,	frá-
1GG/	-ie,	-je:	1G/	-je,	fráſuie:	1B-/	.	-je:	1g\	.	-ſuie:
*>B	*	*	*>B	*	*	*>B	*	*	*>B	*	*
=5:|!	=5:|!:|!	=5:|!	=5:|!	=5:|!	=5:|!	=5:|!	=5:|!	=5:|!	=5:|!	=5:|!	=5:|!
!	!	!	!	!	!	!LO:TX:a:t=P:nie wyświetlany tekst na pauzie:problem	!	!	!	!	!
2r	.	.	2r	.	.	2r	Jeſli	.	2r	.	.
2G\	Jeſli	.	2d\	.	.	2g\	.	.	2bn\X	Jeſ-	.
1G\	.	.	1d\	Jeſ-	.	1g\	miá-	.	1bn\y	-li	.
=6-	=6-	=6-	=6-	=6-	=6-	=6-	=6-	=6-	=6-	=6-	=6-
1C/	miáſ-	.	1e\	-li	.	1g\	.	.	2.cc\	miáſ-	.
.	.	.	.	.	.	.	.	.	.	.	.
.	.	.	.	.	.	.	.	.	4b-\	-tá	.
2D/	-tá	.	2.f\	miá-	.	2.d\	-ſtá	.	2a\	.	.
2D/	ſam	.	.	.	.	.	.	.	1dd\	ſam	.
.	.	.	4e\	-ſtá	.	4e\	ſam	.	.	.	.
=7-	=7-	=7-	=7-	=7-	=7-	=7-	=7-	=7-	=7-	=7-	=7-
1B-\	Pan	.	4d\	.	.	1f\	Pan	.	.	.	.
.	.	.	4c\	ſam	.	.	.	.	.	.	.
.	.	.	2B-/	Pan	.	.	.	.	2dd\	Pan	.
!!LO:PB:g=original
2A\	ſtrʒédʒ	.	4c\	ſtrʒédʒ	.	2f\	ſtrʒédʒ	.	2cc\	ſtrʒédʒ	.
.	.	.	4d\	.	.	.	.	.	.	.	.
2G\	.	.	4e\	nie	.	4g\	.	.	1b-\	.	.
.	.	.	4d\	.	.	4e\	.	.	.	.	.
=8-	=8-	=8-	=8-	=8-	=8-	=8-	=8-	=8-	=8-	=8-	=8-
1F\	nie	.	4d\	bę-	.	4f\	nie	.	.	.	.
.	.	.	8c/L	-dzie,	.	4e\	bę-	.	.	.	.
.	.	.	8B-/J	.	.	.	.	.	.	.	.
.	.	.	2c/	.	.	4e\	.	.	2a\	nie	.
.	.	.	.	.	.	8d\L	-dzie,	.	.	.	.
.	.	.	.	.	.	8c\J	.	.	.	.	.
2BB-/	bę-	.	2B-/	Próʒ-	.	2d\	Próʒ-	.	2b-\	bę-	.
1BB-/	-d(zie,)	.	1B-/	-no	.	1f\	-no	.	1dd\	-d(zie,)	.
=9-	=9-	=9-	=9-	=9-	=9-	=9-	=9-	=9-	=9-	=9-	=9-
.	.	.	.	.	.	.	.	.	.	.	.
2F\	Próʒ-	.	2A/	.	.	2f\	.	.	2cc\	Próʒ-	.
2G\	-no	.	2B-/	cʒu-	.	4d\	cʒu-	.	2b-\	-no	.
.	.	.	.	.	.	4c\	ie	.	.	.	.
2G\	cʒu-	.	2B-/	-je	.	4d\	.	.	2b-\	cʒuie	.
.	.	.	.	.	.	4e\	ſtraʒ̇	.	.	.	.
=10-	=10-	=10-	=10-	=10-	=10-	=10-	=10-	=10-	=10-	=10-	=10-
2F\	-je	.	2c/	.	.	2f\	.	.	2a\	.	.
2D/	ſtraʒ̇	.	2d\	ſtraʒ̇	.	2f\	po	.	2a\	ſtraʒ̇	.
2G\	.	.	2B-/	.	.	2d\	.	.	2g/	po	.
!	!	!	!	!	!	!LO:SIC:v= brakuje sylaby "kach"	!	!	!	!	!
2C/	po	.	4c/	po	.	2e\	blán	.	1g\	.	.
.	.	.	4B-/	.	.	.	.	.	.	.	.
=11-	=11-	=11-	=11-	=11-	=11-	=11-	=11-	=11-	=11-	=11-	=11-
1D\	blán(kach)	.	4A/	blán-	.	2.d\	.	.	.	.	.
.	.	.	4G/	(-kach)	.	.	.	.	.	.	.
.	.	.	2A/	w-	.	.	.	.	2f/	blán(kach)	.
.	.	.	.	.	.	4c/	wſʒę-	.	.	.	.
000GG/	wſʒędʒ́ie.	.	000G/	-ſʒędʒ́ie.	.	000B-/	-dʒ́ie.	.	000g\	wſʒędʒ́ie.	.
==-	==-	==-	==-	==-	==-	==-	==-	==-	==-	==-	==-
*-	*-	*-	*-	*-	*-	*-	*-	*-	*-	*-	*-
!!!RDF**kern: l = terminal long
!!!system-decoration: [(s1,s2,s3,s4)]
!!!ENC: Leszek Kubiak
!!!END: data 2020-02-21
!!!URL-scan: https://polona.pl/item/melodiae-na-psalterz-polski,Nzk3MTM4ODQ/298 Scan on Polona
!!!IIIF: https://polona.pl/iiif/item/Nzk3MTM4ODQ/manifest.json
